icons/evolvere-blue-folders-flat-vivid-dark-fallback/mimetypes/64/audio-x-generic.svg

<?xml version="1.0" encoding="UTF-8" standalone="no"?>
<!-- Created with Inkscape (http://www.inkscape.org/) -->

<svg
   xmlns:dc="http://purl.org/dc/elements/1.1/"
   xmlns:cc="http://creativecommons.org/ns#"
   xmlns:rdf="http://www.w3.org/1999/02/22-rdf-syntax-ns#"
   xmlns:svg="http://www.w3.org/2000/svg"
   xmlns="http://www.w3.org/2000/svg"
   xmlns:sodipodi="http://sodipodi.sourceforge.net/DTD/sodipodi-0.dtd"
   xmlns:inkscape="http://www.inkscape.org/namespaces/inkscape"
   version="1.1"
   width="64"
   height="64"
   id="svg13094"
   inkscape:version="0.48.4 r9939"
   sodipodi:docname="audio-x-generic.svg">
  <sodipodi:namedview
     pagecolor="#ffffff"
     bordercolor="#666666"
     borderopacity="1"
     objecttolerance="10"
     gridtolerance="10"
     guidetolerance="10"
     inkscape:pageopacity="0"
     inkscape:pageshadow="2"
     inkscape:window-width="1920"
     inkscape:window-height="1022"
     id="namedview1333"
     showgrid="true"
     inkscape:snap-bbox="true"
     inkscape:bbox-paths="true"
     inkscape:bbox-nodes="true"
     inkscape:snap-bbox-edge-midpoints="true"
     inkscape:snap-bbox-midpoints="true"
     inkscape:zoom="10.429825"
     inkscape:cx="39.021314"
     inkscape:cy="29.94548"
     inkscape:window-x="-5"
     inkscape:window-y="23"
     inkscape:window-maximized="1"
     inkscape:current-layer="svg13094"
     inkscape:object-paths="true"
     inkscape:snap-intersection-paths="true"
     inkscape:object-nodes="true"
     inkscape:snap-smooth-nodes="true"
     inkscape:snap-midpoints="true"
     inkscape:snap-object-midpoints="true"
     inkscape:snap-center="true"
     fit-margin-top="0"
     fit-margin-left="0"
     fit-margin-right="0"
     fit-margin-bottom="0"
     showguides="true"
     inkscape:guide-bbox="true"
     inkscape:snap-global="true"
     borderlayer="true"
     inkscape:showpageshadow="false">
    <inkscape:grid
       type="xygrid"
       id="grid4487"
       empspacing="5"
       visible="true"
       enabled="true"
       snapvisiblegridlinesonly="true"
       originx="-2.999998px"
       originy="112px" />
  </sodipodi:namedview>
  <defs
     id="defs11" />
  <metadata
     id="metadata13099">
    <rdf:RDF>
      <cc:Work
         rdf:about="">
        <dc:format>image/svg+xml</dc:format>
        <dc:type
           rdf:resource="http://purl.org/dc/dcmitype/StillImage" />
        <dc:title />
      </cc:Work>
    </rdf:RDF>
  </metadata>
  <path
     d="M 4,0 64,0 64,62 4,62 z"
     id="path3960"
     style="fill:#4f3ebe;fill-rule:nonzero;fill-opacity:1"
     inkscape:connector-curvature="0" />
  <path
     style="fill:#1b0051;fill-rule:nonzero;fill-opacity:0.24824561"
     d="M 60 2 L 60 33 L 35.6875 62 L 64 62 L 64 37 L 64 6 L 60 2 z "
     id="path3900" />
  <path
     id="path4016"
     d="M 0,2 60,2 60,33 34,64 0,64 z"
     style="fill:#6250d6;fill-opacity:1;fill-rule:nonzero"
     inkscape:connector-curvature="0" />
  <path
     id="path4018"
     d="M 0,2 0,36.4375 38.5,58.65625 60,33 60,29.5625 12.25,2 0,2 z"
     style="fill:#537ae2;fill-opacity:1;fill-rule:nonzero"
     inkscape:connector-curvature="0" />
  <path
     d="M 34,64 60,33 c -2.328567,2.776369 -4.36141,3 -11,3 H 37 v 15 c 0,6.64407 0.04437,9.37018 -3,13 z"
     id="path4278"
     style="fill:#4551cd;fill-rule:nonzero;fill-opacity:1"
     inkscape:connector-curvature="0" />
  <path
     style="font-size:medium;font-style:normal;font-variant:normal;font-weight:normal;font-stretch:normal;text-indent:0;text-align:start;text-decoration:none;line-height:normal;letter-spacing:normal;word-spacing:normal;text-transform:none;direction:ltr;block-progression:tb;writing-mode:lr-tb;text-anchor:start;baseline-shift:baseline;color:#000000;fill:#d5edff;fill-opacity:1;stroke:none;stroke-width:1.23863660999999992;marker:none;visibility:visible;display:inline;overflow:visible;enable-background:accumulate;font-family:Sans;-inkscape-font-specification:Sans"
     d="M 1.28125 2 L 0 20.03125 L 0 36.625 L 1.84375 9.875 L 2.875 32.625 L 2.875 32.65625 C 2.8750849 32.84936 3.1371344 33 3.4375 33 C 3.7378656 33 4.0311651 32.84936 4.03125 32.65625 L 4.03125 32.625 L 4.875 15.125 L 5.40625 17.125 C 5.500629 17.458477 6.4368727 17.458477 6.53125 17.125 L 8 10.03125 L 9.09375 34.28125 C 9.18813 34.614726 10.124374 34.614726 10.21875 34.28125 L 11.25 17.21875 L 12.90625 25.25 L 12.90625 25.3125 C 13.013095 25.644868 13.95104 25.647955 14.03125 25.3125 L 14.03125 25.21875 L 14.96875 17.5625 L 15.53125 19.59375 C 15.664969 20.049231 16.631347 19.969668 16.65625 19.5 L 16.65625 19.4375 L 16.65625 14.34375 L 18.09375 26.84375 L 18.09375 26.9375 C 18.07891 27.130578 18.324693 27.302847 18.625 27.3125 C 18.925306 27.3222 19.203559 27.161817 19.21875 26.96875 L 21.28125 17.0625 L 21.9375 19.59375 C 21.98692 19.813416 22.243358 19.994923 22.5 20 L 60 20 L 60 19.625 L 60 19 L 23 19 L 21.78125 14.5625 C 21.68687 14.229024 20.750628 14.229024 20.65625 14.5625 L 18.8125 23.34375 L 16.65625 4.5 L 16.65625 4.46875 C 16.538595 4.1365051 15.595424 4.16176 15.53125 4.5 L 15.53125 4.53125 L 15.53125 15.21875 L 15.34375 14.5625 C 15.236906 14.23013 14.330207 14.258292 14.25 14.59375 L 14.25 14.6875 L 13.34375 21.84375 L 11.5 13 L 11.5 12.9375 C 11.48515 12.744277 11.206783 12.58409 10.90625 12.59375 C 10.605717 12.60345 10.359797 12.775539 10.375 12.96875 L 9.71875 23.53125 L 8.9375 5.65625 L 8.9375 5.59375 C 8.8733261 5.2554993 7.9301549 5.230255 7.8125 5.5625 L 7.8125 5.625 L 5.90625 14.59375 L 5.09375 11.28125 C 5.0712158 11.088105 4.76917 10.923014 4.46875 10.9375 C 4.1683292 10.951986 3.9149682 11.150605 3.9375 11.34375 L 3.46875 20.71875 L 2.59375 2 L 1.28125 2 z "
     id="path3792" />
</svg>

<svg xmlns="http://www.w3.org/2000/svg" viewBox="0 0 64 64"><path d="m4 0h60v62h-60z" fill="#4f3ebe"/><path d="m60 2v31l-24.313 29h28.313v-25-31l-4-4" fill="#1b0051" fill-opacity=".248"/><path d="m0 2h60v31l-26 31h-34z" fill="#6250d6"/><path d="M 0,2 0,36.4375 38.5,58.65625 60,33 60,29.5625 12.25,2 0,2 z" fill="#537ae2"/><path d="m34 64l26-31c-2.329 2.776-4.361 3-11 3h-12v15c0 6.644.044 9.37-3 13" fill="#4551cd"/><path d="m1.281 2l-1.281 18.03v16.594l1.844-26.75 1.031 22.75v.031c0 .193.262.344.563.344.3 0 .594-.151.594-.344v-.031l.844-17.5.531 2c.094.333 1.031.333 1.125 0l1.469-7.094 1.094 24.25c.094.333 1.031.333 1.125 0l1.031-17.06 1.656 8.03v.063c.107.332 1.045.335 1.125 0v-.094l.938-7.656.563 2.031c.134.455 1.1.376 1.125-.094v-.063-5.094l1.438 12.5v.094c-.015.193.231.365.531.375.3.01.579-.151.594-.344l2.063-9.906.656 2.531c.049.22.306.401.563.406h37.5v-.375-.625h-37l-1.219-4.438c-.094-.333-1.031-.333-1.125 0l-1.844 8.781-2.156-18.844v-.031c-.118-.332-1.061-.307-1.125.031v.031 10.688l-.188-.656c-.107-.332-1.014-.304-1.094.031v.094l-.906 7.156-1.844-8.844v-.063c-.015-.193-.293-.353-.594-.344-.301.01-.546.182-.531.375l-.656 10.563-.781-17.875v-.063c-.064-.338-1.01-.363-1.125-.031v.063l-1.906 8.969-.813-3.313c-.023-.193-.325-.358-.625-.344-.3.014-.554.213-.531.406l-.469 9.375-.875-18.719h-1.313" color="#000" fill="#d5edff"/></svg>
